svg/add-firewall.svg

<?xml version="1.0" encoding="UTF-8"?>
<svg xmlns="http://www.w3.org/2000/svg" xmlns:xlink="http://www.w3.org/1999/xlink" width="32" height="32" viewBox="0 0 32 32">
<defs>
<clipPath id="clip-0">
<path clip-rule="nonzero" d="M 1.25 5 L 30.75 5 L 30.75 27 L 1.25 27 Z M 1.25 5 "/>
</clipPath>
<clipPath id="clip-1">
<path clip-rule="nonzero" d="M 0 32 L 0 0 L 32 0 L 32 32 Z M 15.75 8.050781 C 11.105469 8.050781 7.300781 11.855469 7.300781 16.5 C 7.300781 21.144531 11.105469 24.949219 15.75 24.949219 C 20.394531 24.949219 24.199219 21.144531 24.199219 16.5 C 24.199219 11.855469 20.394531 8.050781 15.75 8.050781 "/>
</clipPath>
</defs>
<g clip-path="url(#clip-0)">
<g clip-path="url(#clip-1)">
<path fill-rule="nonzero" fill="rgb(41.568627%, 41.568627%, 41.568627%)" fill-opacity="1" d="M 1.28125 5.121094 L 1.28125 11.519531 L 10.238281 11.519531 L 10.238281 5.121094 Z M 11.519531 5.121094 L 11.519531 11.519531 L 20.480469 11.519531 L 20.480469 5.121094 Z M 21.761719 5.121094 L 21.761719 11.519531 L 30.71875 11.519531 L 30.71875 5.121094 Z M 1.28125 12.800781 L 1.28125 19.199219 L 5.121094 19.199219 L 5.121094 12.800781 Z M 6.398438 12.800781 L 6.398438 19.199219 L 15.359375 19.199219 L 15.359375 12.800781 Z M 16.640625 12.800781 L 16.640625 19.199219 L 25.601562 19.199219 L 25.601562 12.800781 Z M 26.878906 12.800781 L 26.878906 19.199219 L 30.71875 19.199219 L 30.71875 12.800781 Z M 1.28125 20.480469 L 1.28125 26.878906 L 10.238281 26.878906 L 10.238281 20.480469 Z M 11.519531 20.480469 L 11.519531 26.878906 L 20.480469 26.878906 L 20.480469 20.480469 Z M 21.761719 20.480469 L 21.761719 26.878906 L 30.71875 26.878906 L 30.71875 20.480469 Z M 21.761719 20.480469 "/>
</g>
</g>
<path fill-rule="nonzero" fill="rgb(0%, 0%, 0%)" fill-opacity="1" d="M 15.75 9.460938 C 11.878906 9.460938 8.710938 12.628906 8.710938 16.5 C 8.710938 20.371094 11.878906 23.539062 15.75 23.539062 C 19.621094 23.539062 22.789062 20.371094 22.789062 16.5 C 22.789062 12.628906 19.621094 9.460938 15.75 9.460938 M 19.199219 17.203125 L 16.453125 17.203125 L 16.453125 19.949219 C 16.453125 20.371094 16.171875 20.652344 15.75 20.652344 C 15.328125 20.652344 15.046875 20.371094 15.046875 19.949219 L 15.046875 17.203125 L 12.300781 17.203125 C 11.878906 17.203125 11.597656 16.921875 11.597656 16.5 C 11.597656 16.078125 11.878906 15.796875 12.300781 15.796875 L 15.046875 15.796875 L 15.046875 12.980469 C 15.046875 12.558594 15.328125 12.277344 15.75 12.277344 C 16.171875 12.277344 16.453125 12.558594 16.453125 12.980469 L 16.453125 15.796875 L 19.199219 15.796875 C 19.621094 15.796875 19.902344 16.078125 19.902344 16.5 C 19.902344 16.921875 19.621094 17.203125 19.199219 17.203125 "/>
</svg>

<svg role="img" viewBox="0 0 32 32" height="32" width="32" xmlns="http://www.w3.org/2000/svg"><defs><clipPath id="244__242__126__124__373__371__12__10__78__76__377__375__12__10__457__455__106__104__370__368__add-firewall_svg__svg/add-firewall.svg25__svg/add-firewall.svg21__clip-0"><path d="M1.25 5h29.5v22H1.25Zm0 0"/></clipPath><clipPath id="245__243__127__125__374__372__13__11__79__77__378__376__13__11__458__456__107__105__371__369__add-firewall_svg__svg/add-firewall.svg27__svg/add-firewall.svg23__clip-1"><path d="M0 32V0h32v32ZM15.75 8.05c-4.645 0-8.45 3.805-8.45 8.45s3.805 8.45 8.45 8.45 8.45-3.805 8.45-8.45-3.805-8.45-8.45-8.45"/></clipPath></defs><g clip-path="url(#244__242__126__124__373__371__12__10__78__76__377__375__12__10__457__455__106__104__370__368__add-firewall_svg__svg/add-firewall.svg25__svg/add-firewall.svg21__clip-0)"><g clip-path="url(#245__243__127__125__374__372__13__11__79__77__378__376__13__11__458__456__107__105__371__369__add-firewall_svg__svg/add-firewall.svg27__svg/add-firewall.svg23__clip-1)"><path d="M1.281 5.121v6.399h8.957v-6.4Zm10.239 0v6.399h8.96v-6.4Zm10.242 0v6.399h8.957v-6.4Zm-20.48 7.68v6.398h3.84v-6.398Zm5.116 0v6.398h8.961v-6.398Zm10.243 0v6.398h8.96v-6.398Zm10.238 0v6.398h3.84v-6.398ZM1.28 20.48v6.398h8.957V20.48Zm10.239 0v6.398h8.96V20.48Zm10.242 0v6.398h8.957V20.48Zm0 0" fill="rgb(41.568627%, 41.568627%, 41.568627%)"/></g></g><path d="M15.75 9.46c-3.871 0-7.04 3.169-7.04 7.04s3.169 7.04 7.04 7.04 7.04-3.169 7.04-7.04-3.169-7.04-7.04-7.04m3.45 7.743h-2.747v2.746c0 .422-.281.703-.703.703-.422 0-.703-.28-.703-.703v-2.746H12.3c-.422 0-.703-.281-.703-.703 0-.422.28-.703.703-.703h2.746V12.98c0-.421.281-.703.703-.703.422 0 .703.282.703.703v2.817H19.2c.422 0 .703.281.703.703 0 .422-.28.703-.703.703"/></svg>
